X:144
T:Saudade de Mim (Missing Me)
R:reel
C: 2009, 2010 L.E. McCullough 
M:4/4
L:1/8
K:B minor
A2|:Bdef-~f3A |Befg-~g3A | Bdef-~f3d |~e3a gfed |
Bdef-~f3A |Befg-~g3e |f~a3 gfed |1 edcA ~B3A:|2 edcA ~B3c|]
|:d~f3 ~a3b |adfa bagf |gBeg-~g3a | gBeg agfe |
f~B3 g~B3 |fgaf gfed |e~A3 cdef |1 edcA ~B3c:|2 edcA ~B3A|]

